storage/app/icons/phosphoricons/bold/book-open-bold.svg

<svg xmlns="http://www.w3.org/2000/svg" fill="currentColor" viewBox="0 0 256 256"><path d="M232 44h-72a43.86 43.86 0 0 0-32 13.85A43.86 43.86 0 0 0 96 44H24a12 12 0 0 0-12 12v144a12 12 0 0 0 12 12h72a20 20 0 0 1 20 20 12 12 0 0 0 24 0 20 20 0 0 1 20-20h72a12 12 0 0 0 12-12V56a12 12 0 0 0-12-12M96 188H36V68h60a20 20 0 0 1 20 20v104.81A43.8 43.8 0 0 0 96 188m124 0h-60a43.7 43.7 0 0 0-20 4.83V88a20 20 0 0 1 20-20h60Z"/></svg>

<svg xmlns="http://www.w3.org/2000/svg" viewBox="0 0 256 256" fill="currentColor"><path d="M232,44H160a43.86,43.86,0,0,0-32,13.85A43.86,43.86,0,0,0,96,44H24A12,12,0,0,0,12,56V200a12,12,0,0,0,12,12H96a20,20,0,0,1,20,20,12,12,0,0,0,24,0,20,20,0,0,1,20-20h72a12,12,0,0,0,12-12V56A12,12,0,0,0,232,44ZM96,188H36V68H96a20,20,0,0,1,20,20V192.81A43.79,43.79,0,0,0,96,188Zm124,0H160a43.71,43.71,0,0,0-20,4.83V88a20,20,0,0,1,20-20h60Z"/></svg>
